X: 63
T: Alamam Doğrusu Dest-i Emele
C: Şerif İçli
O: Turkey
F: http://compmusic.upf.edu/node/140
N: mahur--sarki--aksak--alamam_dogrusu--serif_icli
N: makam= mahur
N: form= sarki
N: usul= aksak = 9/8
M: 9/8
L: 1/16
K: C ^9/8f   
Q: 1/4=138
%%MIDI tuningsystem comma53
g2gd g2gd g2g^3/4f e6 | ^f3def gafg e^3/4fd6  | 
w:  ARANAĞME  |   | 
de^fd efge fgaf ga_1/4bg af | g2 ^fed2 {=f}ede3/2d/ e^fg6  | 
w:   |   | 
g2gd g2gd g2g^f e6 | ^f3def gafg e^3/4fd6  | 
w:   |   | 
cdec de^3/4fd efga g=fed c_1/4B | \
w:   | 
A_2/4B cABc dBA_1/4B cAG3de^f  | 
w:   | 
g2gd g2gd g2g^3/4f e6 | ^f3def gafg e^3/4fd6  | 
w:  ARANAĞME  |   | 
de^fd efge fgaf ga_1/4bg af | g2 ^fed2 {=f}ede3/2d/ e^fg6  | 
w:   |   | 
g2gd g2gd g2g^f e6 | ^f3def gafg e^3/4fd6  | 
w:   |   | 
cdec de^3/4fd efga g=fed c_1/4B | \
w:   | 
A_2/4B cABc dBA_1/4B cAG3de^f  | 
w:   | 
g4 g2^fe d2g2 gfed ef | g2 a2a2 {c'}_1/4baag ^fgg3/2f/ effe  | 
w:  Ah  a la *  mam *  doğ  |  *  *  ru *  su  *  dest_ *  *  *  i   | 
e2d^3/4c d2e2 ^f2g2 ac'_1/4ba gf | \
w:  *  *  *  e me le    | 
g2 ^fee2 e2.e4e=f efed  | 
w:  *  *  *  A la mam doğ  | 
d4 e2^f2 g4 g3/2f/g_1/4b ag | {g}^f3/2e/ d2e2 f2g4g3/2f/ edef  | 
w:  *  ru su  dest_ i   |  *  *  *  *  e me le   SAZ  | 
g4 a3/2g/^fg a2{c'}_1/4ba agg=f fe | \
w:  *  Bir  *  ka *  deh  *  ki   | 
ed dcd2 e=fed dcd{a}g fede  | 
w:  *  *  *  *  do la *  şır_ *  *  *  el  | 
d3c dc_1/4B^3/4A B4 dcBA Bc | _1/4B4c3/2_2/4B/ ABA4cB AG^FG  | 
w:  *  *  den_ *  e *  le   SAZ  |  *  Bir  *  ka *  deh  ki   | 
E4 ^F2G2 A_1/4Bcd eg=fe dc | _1/4B3AA2 {B}AGG4cB AGAB  | 
w:  *  do la şır_ *  *  *  el  |  *  *  den_ *  e *  le   SAZ  | 
c4 _1/4B2c2 c4 d2e2 ea | e3dd2 eddc c_1/4Bde ^fgfe  | 
w:  *  İs te mem  ça  |  *  *  re  de  *  ol *  *  *  sa   | 
e2d^3/4c d2e2 ^f2g2 ac'_1/4ba gf | \
w:  *  *  *  e ce le    | 
g2 ^fee2 e2.e4e=f efed  | 
w:  *  *  *  İs te mem  ça  | 
d4 e2^f2 g4 g3/2f/g_1/4b ag | ^f3/2e/ d2e2 f2g4g3/2f/ edef  | 
w:  *  re  de  ol sa   |  *  *  *  e ce le   SAZ  | 
g4 a3/2g/^fg a2{c'}_1/4ba agg=f fe | \
w:  *  Bir  *  ka *  deh  *  ki   | 
ed dcd2 e=fed dcd{a}g fede  | 
w:  *  *  *  *  do la *  şır_ *  *  *  el  | 
d3c dc_1/4B^3/4A B4 dcBA Bc | _1/4B4c3/2_2/4B/ ABA4cB AG^FG  | 
w:  *  *  den_ *  e *  le   SAZ  |  *  Bir  *  ka *  deh  ki   | 
E4 ^F2G2 A_1/4Bcd eg=fe dc | _1/4B3AA2 {B}AGG4|
w:  *  do la şır_ *  *  *  el  |  *  *  den_ *  e *  le    | 


